X: 13
T: No_21_Song_During_Treatment_of_the_Sick.krn
N: Derived from No_21_Song_During_Treatment_of_the_Sick.krn
%%abc-version 2.0
%%abcx-abcm2ps-target-version 5.9.1 (29 Sep 2008)
%%abc-creator hum2abc beta
%%abcx-conversion-date 2019/03/15 08:25:35
%%humdrum-veritas 1879192293
%%humdrum-veritas-data 568585722
%%linebreak <none>
%%barnumbers 0
L: 1/8
M: 7/8
%%staves {1 2}
V: 1 clef=bass
V: 2 clef=bass
K: C
[V:1] [K:clef=bass][M:7/8]CA,C2A,C3/A,/ [I:setbarnb 2]| 
[V:2] [K:clef=bass][M:7/8]z2zz4 | 
[V:1] [M:3/4]C2C2C2 | 
[V:2] [M:3/4]G,,2G,,2G,,2 | 
[V:1] [M:2/4]EC EC | 
[V:2] [M:2/4]G,,2G,,2 | 
[V:1] CB,A,2 | 
[V:2] G,,2G,,2 | 
[V:1] CA, CA, | 
[V:2] G,,2G,,2 | 
[V:1] [M:3/4]A,F,F,2F,2 | 
[V:2] [M:3/4]G,,2G,,2G,,2 | 
[V:1] [M:7/8]A,F,A,2F,A,3/F,/ | 
[V:2] [M:7/8]z7 | 
[V:1] [M:3/4]A,2A,2A,2 | 
[V:2] [M:3/4]z6 | 
[V:1] [M:2/4]CA, CA, | 
[V:2] [M:2/4]z4 | 
[V:1] A,F, F, z | 
[V:2] z4 | 
[V:1] A,2CA, | 
[V:2] z4 | 
[V:1] [M:3/4]A,F,F,2F,C, | 
[V:2] [M:3/4]z6 | 
[V:1] [M:2/4]F,F,-F,2 | 
[V:2] [M:2/4]z4 | 
[V:1] [M:5/8]F,2F, z A, | 
[V:2] [M:5/8](3:2:1z15/ | 
[V:1] [M:7/8]CB,C/ z/ A,CB,C | 
[V:2] [M:7/8]z7 | 
[V:1] [M:5/8]A,2A,E,A, | 
[V:2] [M:5/8](3:2:1z15/ | 
[V:1] [M:3/4]A,A,A,2A, z :|]  
[V:2] [M:3/4]z6 :|]  



